X:245
T:Gee O'Dobbin. JC.250
T:How Do You Do?, aka. JC.250
R:Air
S:John Clare,Poet,Helpstone (1793-1864)
N:No KS in MS.More or less the same as the morris dance
N:tune,  from Sherborne. CGP.
N:Song text exists,(or not). See Deacon.
O:England
A:Northamptonshire
Z:vmp.P. Headford
M:6/8
L:1/8
Q:3/8=60
K:D
A/G/|\
FDF AFA|BAB ABc|dcd Bge|cAcd2:|!
|:G3|!
F2A FDF|G2B GEG|FGA Bcd|cBcd2:|

